src/assets/icons/svg/message.svg

<svg width="24" height="24" viewBox="0 0 24 24" fill="none" xmlns="http://www.w3.org/2000/svg">
<path d="M6.28326 23.439C6.08972 23.439 5.89417 23.4012 5.70758 23.324C5.1449 23.0909 4.78125 22.5467 4.78125 21.9377V20.3438C4.78125 19.775 4.31873 19.3125 3.75 19.3125C1.68219 19.3125 0 17.6303 0 15.5625V4.3125C0 2.24469 1.68219 0.5625 3.75 0.5625H20.25C22.3178 0.5625 24 2.24469 24 4.3125V10.875C24 11.3928 23.5803 11.8125 23.0625 11.8125C22.5447 11.8125 22.125 11.3928 22.125 10.875V4.3125C22.125 3.27869 21.2838 2.4375 20.25 2.4375H3.75C2.71619 2.4375 1.875 3.27869 1.875 4.3125V15.5625C1.875 16.5963 2.71619 17.4375 3.75 17.4375C5.35254 17.4375 6.65625 18.7412 6.65625 20.3438V21.0335L8.69769 18.9921C9.7002 17.9896 11.033 17.4375 12.4508 17.4375H20.25C21.2838 17.4375 22.125 16.5963 22.125 15.5625C22.125 15.0447 22.5447 14.625 23.0625 14.625C23.5803 14.625 24 15.0447 24 15.5625C24 17.6303 22.3178 19.3125 20.25 19.3125H12.4508C11.5338 19.3125 10.6719 19.6696 10.0236 20.3179L7.34271 22.9988C7.05505 23.2864 6.67291 23.439 6.28326 23.439ZM19.3125 6.1875C19.3125 5.66968 18.8928 5.25 18.375 5.25H5.625C5.10718 5.25 4.6875 5.66968 4.6875 6.1875C4.6875 6.70532 5.10718 7.125 5.625 7.125H18.375C18.8928 7.125 19.3125 6.70532 19.3125 6.1875ZM19.3125 9.9375C19.3125 9.41968 18.8928 9 18.375 9H5.625C5.10718 9 4.6875 9.41968 4.6875 9.9375C4.6875 10.4553 5.10718 10.875 5.625 10.875H18.375C18.8928 10.875 19.3125 10.4553 19.3125 9.9375ZM15.5625 13.6875C15.5625 13.1697 15.1428 12.75 14.625 12.75H5.625C5.10718 12.75 4.6875 13.1697 4.6875 13.6875C4.6875 14.2053 5.10718 14.625 5.625 14.625H14.625C15.1428 14.625 15.5625 14.2053 15.5625 13.6875Z" fill="black"/>
</svg>

<?xml version="1.0" encoding="iso-8859-1"?>
<!-- Generator: Adobe Illustrator 23.1.0, SVG Export Plug-In . SVG Version: 6.00 Build 0)  -->
<svg version="1.1" id="&#x421;&#x43B;&#x43E;&#x439;_1"
	 xmlns="http://www.w3.org/2000/svg" xmlns:xlink="http://www.w3.org/1999/xlink" x="0px" y="0px" viewBox="0 0 24 24"
	 style="enable-background:new 0 0 24 24;" xml:space="preserve">
<path d="M6.283,23.439c-0.194,0-0.389-0.038-0.576-0.115c-0.563-0.233-0.926-0.777-0.926-1.386v-1.594
	c0-0.569-0.463-1.031-1.031-1.031c-2.068,0-3.75-1.682-3.75-3.75V4.313c0-2.068,1.682-3.75,3.75-3.75h16.5
	c2.068,0,3.75,1.682,3.75,3.75v6.563c0,0.518-0.42,0.938-0.938,0.938s-0.938-0.42-0.938-0.938V4.313
	c0-1.034-0.841-1.875-1.875-1.875H3.75c-1.034,0-1.875,0.841-1.875,1.875v11.25c0,1.034,0.841,1.875,1.875,1.875
	c1.603,0,2.906,1.304,2.906,2.906v0.69l2.041-2.041c1.003-1.003,2.335-1.555,3.753-1.555h7.799c1.034,0,1.875-0.841,1.875-1.875
	c0-0.518,0.42-0.938,0.938-0.938S24,15.045,24,15.563c0,2.068-1.682,3.75-3.75,3.75h-7.799c-0.917,0-1.779,0.357-2.427,1.005
	l-2.681,2.681C7.055,23.286,6.673,23.439,6.283,23.439z M19.313,6.188c0-0.518-0.42-0.938-0.938-0.938H5.625
	c-0.518,0-0.938,0.42-0.938,0.938s0.42,0.938,0.938,0.938h12.75C18.893,7.125,19.313,6.705,19.313,6.188z M19.313,9.938
	C19.313,9.42,18.893,9,18.375,9H5.625C5.107,9,4.688,9.42,4.688,9.938c0,0.518,0.42,0.938,0.938,0.938h12.75
	C18.893,10.875,19.313,10.455,19.313,9.938z M15.563,13.688c0-0.518-0.42-0.938-0.938-0.938h-9c-0.518,0-0.938,0.42-0.938,0.938
	s0.42,0.938,0.938,0.938h9C15.143,14.625,15.563,14.205,15.563,13.688z"/>
</svg>
